X:346
T: "Der Zimmergesell"
N: Z1026
O: Europa, Mitteleuropa, Deutschland, Rhein
R: Romanze, Ballade, Handwerker - Lied
M: 2/4
L: 1/16
K: A
E2 | A2=c2B2A2 | A2GGG2
E2 | A2B2=c2d2 | B4z2
A2 | =c2B2c2A2 | d2dde4 |
A3G=c2A2 | G2=F2E2
B2 | =c2B2c2AA | d2d2e2
=c2 | B2A2G2BB | A4z2

@@@ Tune index: 10104
